X: 2312
T: BONNETS O' BLUE
R: Scotch Jig.
%R: jig
B: James Kerr "Merry Melodies" v.2 p.34 #312
Z: 2016 John Chambers <jc:trillian.mit.edu>
N: The 2nd strain has 14 bars.
M: 6/8
L: 1/8
K: D
uA |\
vded fga | ABA ABc | vd2vb afd | e3- e2 uA |\
ded fga | ABA uA2ub | agf ede | d3- d2 ::\
ud |\
cde efe | A3- A2ud | cde efe | a3- a2ug |\
vf2ve ud2uc |
vd2ve uf2f | fbf edc | B3- B2 A |\
ddd faf | d3- d2uA | vd2vb afd | e3- e2A |\
ded fga | ABA A2b | agf edc | d3 (d'2b) |\
agf ede | d3- d2 :|

%%sep 1 1 500
%%sep 1 1 500

